img/icons/svg/wallet.svg

<svg xmlns="http://www.w3.org/2000/svg" viewBox="0 0 512 512"><path d="M0 154.474v260.414h512V105.923H48.552C21.734 105.923 0 127.665 0 154.474" fill="#fdb62f"/><path d="M17.655 189.785H0c.035-31.673 25.706-57.344 57.379-57.379H512v17.655H57.379c-21.927.026-39.697 17.796-39.724 39.724z" fill="#fd7b2f"/><path d="M476.69 229.509l19.341-19.341c13.718-13.718 13.798-35.946.177-49.761L348.398 10.523c-13.692-13.886-36.052-14.036-49.938-.344l-.009.009-195.548 193.094L291.31 414.888l185.38-185.379z" fill="#4398d1"/><g fill="#87ced9"><path d="M329.83 68.059l-79.447 79.447-12.484-12.484 79.447-79.447zM356.315 94.514l-44.13 44.13L299.7 126.16l44.13-44.13zM394.651 129.833l-35.31 35.31-12.484-12.483 35.31-35.31zM341.69 182.813l-26.485 26.485-12.484-12.484 26.485-26.485z"/></g><circle cx="423.724" cy="203.026" r="35.31" fill="#de4c3c"/><path d="M48.552 203.026C21.734 203.026 0 181.293 0 154.474V463.44c0 26.818 21.734 48.552 48.552 48.552H476.69V203.026H48.552z" fill="#8f5436"/><path d="M344.276 291.302H512v123.586H344.276c-34.127 0-61.793-27.666-61.793-61.793 0-34.127 27.665-61.793 61.793-61.793z" fill="#a3603e"/><circle cx="344.276" cy="353.095" r="26.483" fill="#e5e5e5"/><g fill="#6b402a"><path d="M449.871 255.992h-17.92v-17.655h17.92v17.655zm-35.857 0h-17.92v-17.655h17.92v17.655zm-35.831 0h-17.911v-17.655H378.2l-.017 17.655zm-35.84 0h-17.92v-17.655h17.92v17.655zm-35.832 0H288.6v-17.655h17.929l-.018 17.655zm-35.84 0h-17.92v-17.655h17.92v17.655zm-35.857 0h-17.876v-17.655h17.876v17.655zm-35.831 0h-17.876v-17.655h17.911l-.035 17.655zm-35.84 0h-17.876v-17.655h17.911l-.035 17.655zm-35.832 0h-17.849v-17.655h17.92l-.071 17.655zm-35.84 0H73.596v-17.655h17.911l-.036 17.655zm-35.795 0h-7.124c-4.149 0-8.28-.38-12.359-1.121l3.204-17.364c3.019.556 6.082.83 9.154.83h7.062l.063 17.655zm-39.054-8.298a51.858 51.858 0 01-15.89-14.327l14.274-10.364a34.288 34.288 0 0010.54 9.446l-8.924 15.245zM467.862 238.336h8.828v17.655h-8.828zM449.871 476.681h-17.92v-17.655h17.92v17.655zm-35.857 0h-17.92v-17.655h17.92v17.655zm-35.831 0h-17.911v-17.655H378.2l-.017 17.655zm-35.84 0h-17.92v-17.655h17.92v17.655zm-35.832 0H288.6v-17.655h17.929l-.018 17.655zm-35.84 0h-17.92v-17.655h17.92v17.655zm-35.857 0h-17.876v-17.655h17.876v17.655zm-35.831 0h-17.876v-17.655h17.911l-.035 17.655zm-35.84 0h-17.876v-17.655h17.911l-.035 17.655zm-35.832 0h-17.849v-17.655h17.92l-.071 17.655zm-35.84 0H73.596v-17.655h17.911l-.036 17.655zm-35.795 0h-7.124c-4.149 0-8.28-.38-12.359-1.121l3.204-17.364c3.019.556 6.082.83 9.154.83h7.062l.063 17.655zm-39.054-8.298a51.858 51.858 0 01-15.89-14.327l14.274-10.364a34.272 34.272 0 0010.54 9.445l-8.924 15.246zM467.862 459.026h8.828v17.655h-8.828z"/></g></svg>

<?xml version="1.0" encoding="iso-8859-1"?>
<!-- Generator: Adobe Illustrator 19.0.0, SVG Export Plug-In . SVG Version: 6.00 Build 0)  -->
<svg version="1.1" id="Capa_1" xmlns="http://www.w3.org/2000/svg" xmlns:xlink="http://www.w3.org/1999/xlink" x="0px" y="0px"
	 viewBox="0 0 512 512" style="enable-background:new 0 0 512 512;" xml:space="preserve">
<path style="fill:#FDB62F;" d="M0,154.474v260.414h512V105.923H48.552C21.734,105.923,0,127.665,0,154.474L0,154.474"/>
<path style="fill:#FD7B2F;" d="M17.655,189.785H0c0.035-31.673,25.706-57.344,57.379-57.379H512v17.655H57.379
	C35.452,150.087,17.682,167.857,17.655,189.785z"/>
<path style="fill:#4398D1;" d="M476.69,229.509l19.341-19.341c13.718-13.718,13.798-35.946,0.177-49.761L348.398,10.523
	c-13.692-13.886-36.052-14.036-49.938-0.344l-0.009,0.009L102.903,203.282L291.31,414.888L476.69,229.509z"/>
<g>
	
		<rect x="227.683" y="92.714" transform="matrix(-0.7071 0.7071 -0.7071 -0.7071 556.3823 -27.3776)" style="fill:#87CED9;" width="112.356" height="17.655"/>
	
		<rect x="296.799" y="101.512" transform="matrix(-0.7071 0.7071 -0.7071 -0.7071 637.9603 -43.5732)" style="fill:#87CED9;" width="62.41" height="17.655"/>
	
		<rect x="345.781" y="132.421" transform="matrix(-0.7071 0.7071 -0.7071 -0.7071 732.7877 -21.0337)" style="fill:#87CED9;" width="49.937" height="17.655"/>
	
		<rect x="303.474" y="180.988" transform="matrix(-0.7071 0.7071 -0.7071 -0.7071 684.2527 96.2033)" style="fill:#87CED9;" width="37.455" height="17.655"/>
</g>
<circle style="fill:#DE4C3C;" cx="423.724" cy="203.026" r="35.31"/>
<path style="fill:#8F5436;" d="M48.552,203.026C21.734,203.026,0,181.293,0,154.474V463.44c0,26.818,21.734,48.552,48.552,48.552
	H476.69V203.026H48.552z"/>
<path style="fill:#A3603E;" d="M344.276,291.302H512l0,0v123.586l0,0H344.276c-34.127,0-61.793-27.666-61.793-61.793l0,0l0,0
	C282.483,318.968,310.148,291.302,344.276,291.302z"/>
<circle style="fill:#E5E5E5;" cx="344.276" cy="353.095" r="26.483"/>
<g>
	<path style="fill:#6B402A;" d="M449.871,255.992h-17.92v-17.655h17.92V255.992z M414.014,255.992h-17.92v-17.655h17.92V255.992z
		 M378.183,255.992h-17.911v-17.655H378.2L378.183,255.992z M342.343,255.992h-17.92v-17.655h17.92V255.992z M306.511,255.992H288.6
		v-17.655h17.929L306.511,255.992z M270.671,255.992h-17.92v-17.655h17.92V255.992z M234.814,255.992h-17.876v-17.655h17.876
		V255.992z M198.983,255.992h-17.876v-17.655h17.911L198.983,255.992z M163.143,255.992h-17.876v-17.655h17.911L163.143,255.992z
		 M127.311,255.992h-17.849v-17.655h17.92L127.311,255.992z M91.471,255.992H73.596v-17.655h17.911L91.471,255.992z M55.676,255.992
		h-7.124c-4.149,0-8.28-0.38-12.359-1.121l3.204-17.364c3.019,0.556,6.082,0.83,9.154,0.83h7.062L55.676,255.992z M16.622,247.694
		c-6.232-3.619-11.652-8.501-15.89-14.327l14.274-10.364c2.816,3.849,6.409,7.062,10.54,9.446L16.622,247.694z"/>
	<rect x="467.862" y="238.336" style="fill:#6B402A;" width="8.828" height="17.655"/>
	<path style="fill:#6B402A;" d="M449.871,476.681h-17.92v-17.655h17.92V476.681z M414.014,476.681h-17.92v-17.655h17.92V476.681z
		 M378.183,476.681h-17.911v-17.655H378.2L378.183,476.681z M342.343,476.681h-17.92v-17.655h17.92V476.681z M306.511,476.681H288.6
		v-17.655h17.929L306.511,476.681z M270.671,476.681h-17.92v-17.655h17.92V476.681z M234.814,476.681h-17.876v-17.655h17.876
		V476.681z M198.983,476.681h-17.876v-17.655h17.911L198.983,476.681z M163.143,476.681h-17.876v-17.655h17.911L163.143,476.681z
		 M127.311,476.681h-17.849v-17.655h17.92L127.311,476.681z M91.471,476.681H73.596v-17.655h17.911L91.471,476.681z M55.676,476.681
		h-7.124c-4.149,0-8.28-0.38-12.359-1.121l3.204-17.364c3.019,0.556,6.082,0.83,9.154,0.83h7.062L55.676,476.681z M16.622,468.383
		c-6.232-3.619-11.652-8.501-15.89-14.327l14.274-10.364c2.816,3.849,6.409,7.062,10.54,9.445L16.622,468.383z"/>
	<rect x="467.862" y="459.026" style="fill:#6B402A;" width="8.828" height="17.655"/>
</g>
<g>
</g>
<g>
</g>
<g>
</g>
<g>
</g>
<g>
</g>
<g>
</g>
<g>
</g>
<g>
</g>
<g>
</g>
<g>
</g>
<g>
</g>
<g>
</g>
<g>
</g>
<g>
</g>
<g>
</g>
</svg>
